website/public/Images/svg/openebs_hacker.svg

<svg width="32" height="32" viewBox="0 0 32 32" fill="none" xmlns="http://www.w3.org/2000/svg">
<path d="M32 7.5625V2.875C32 1.32419 30.7383 0.0625 29.1875 0.0625H2.8125C1.26169 0.0625 0 1.32419 0 2.875V7.5625H32ZM21.625 3.8125H27.25C27.7677 3.8125 28.1875 4.23225 28.1875 4.75C28.1875 5.26775 27.7677 5.6875 27.25 5.6875H21.625C21.1073 5.6875 20.6875 5.26775 20.6875 4.75C20.6875 4.23225 21.1073 3.8125 21.625 3.8125ZM12.25 3.8125C12.7677 3.8125 13.1875 4.23225 13.1875 4.75C13.1875 5.26775 12.7677 5.6875 12.25 5.6875C11.7323 5.6875 11.3125 5.26775 11.3125 4.75C11.3125 4.23225 11.7323 3.8125 12.25 3.8125ZM8.5 3.8125C9.01775 3.8125 9.4375 4.23225 9.4375 4.75C9.4375 5.26775 9.01775 5.6875 8.5 5.6875C7.98225 5.6875 7.5625 5.26775 7.5625 4.75C7.5625 4.23225 7.98225 3.8125 8.5 3.8125ZM4.75 3.8125C5.26775 3.8125 5.6875 4.23225 5.6875 4.75C5.6875 5.26775 5.26775 5.6875 4.75 5.6875C4.23225 5.6875 3.8125 5.26775 3.8125 4.75C3.8125 4.23225 4.23225 3.8125 4.75 3.8125Z" fill="url(#paint0_linear)"/>
<path d="M0 9.4375V29.125C0 30.6758 1.26169 31.9375 2.8125 31.9375H29.1875C30.7383 31.9375 32 30.6758 32 29.125V9.4375H0ZM10.9606 22.7679C11.365 23.0914 11.4305 23.6813 11.1071 24.0856C10.7837 24.4899 10.1936 24.5555 9.78938 24.232L5.10187 20.482C4.63319 20.1072 4.63287 19.393 5.10187 19.0179L9.78938 15.2679C10.1935 14.9444 10.7836 15.0099 11.1071 15.4143C11.4305 15.8186 11.365 16.4086 10.9606 16.7319L7.18825 19.75L10.9606 22.7679ZM19.6742 13.5568L14.0492 26.6818C13.8453 27.1576 13.2943 27.3783 12.8182 27.1742C12.3423 26.9702 12.1218 26.4191 12.3258 25.9432L17.9508 12.8182C18.1548 12.3423 18.7059 12.1219 19.1818 12.3258C19.6577 12.5297 19.8782 13.0809 19.6742 13.5568ZM26.8981 20.4821L22.2106 24.2321C21.807 24.5551 21.2169 24.4906 20.8929 24.0857C20.5695 23.6814 20.635 23.0914 21.0394 22.768L24.8118 19.75L21.0394 16.7321C20.635 16.4086 20.5695 15.8187 20.8929 15.4144C21.2163 15.0101 21.8063 14.9445 22.2106 15.268L26.8981 19.018C27.3668 19.3928 27.3671 20.1069 26.8981 20.4821Z" fill="url(#paint1_linear)"/>
<defs>
<linearGradient id="paint0_linear" x1="16" y1="0.0625" x2="16" y2="7.5625" gradientUnits="userSpaceOnUse">
<stop stop-color="#184A85"/>
<stop offset="1" stop-color="#8DD6E4"/>
</linearGradient>
<linearGradient id="paint1_linear" x1="16" y1="9.4375" x2="16" y2="31.9375" gradientUnits="userSpaceOnUse">
<stop stop-color="#184A85"/>
<stop offset="1" stop-color="#8DD6E4"/>
</linearGradient>
</defs>
</svg>

<svg xmlns="http://www.w3.org/2000/svg" width="32" height="32" fill="none" xmlns:v="https://vecta.io/nano"><path d="M32 7.563V2.875C32 1.324 30.738.063 29.188.063H2.813C1.262.063 0 1.324 0 2.875v4.688h32zm-10.375-3.75h5.625a.94.94 0 0 1 .938.938.94.94 0 0 1-.937.938h-5.625a.94.94 0 0 1-.937-.937.94.94 0 0 1 .938-.937zm-9.375 0a.94.94 0 0 1 .938.938.94.94 0 0 1-.937.938.94.94 0 0 1-.937-.937.94.94 0 0 1 .938-.937zm-3.75 0a.94.94 0 0 1 .938.938.94.94 0 0 1-.937.938.94.94 0 0 1-.937-.937.94.94 0 0 1 .938-.937zm-3.75 0a.94.94 0 0 1 .938.938.94.94 0 0 1-.937.938.94.94 0 0 1-.937-.937.94.94 0 0 1 .938-.937z" fill="url(#A)"/><path d="M0 9.438v19.688c0 1.551 1.262 2.813 2.813 2.813h26.375c1.551 0 2.813-1.262 2.813-2.812V9.438H0zm10.961 13.33a.94.94 0 0 1 .147 1.318.94.94 0 0 1-1.318.146l-4.688-3.75a.94.94 0 0 1 0-1.464l4.688-3.75a.94.94 0 0 1 1.318.146.94.94 0 0 1-.147 1.318L7.188 19.75l3.772 3.018zm8.714-9.211l-5.625 13.125a.94.94 0 0 1-1.231.492.94.94 0 0 1-.492-1.231l5.625-13.125a.94.94 0 0 1 1.231-.492.94.94 0 0 1 .492 1.231zm7.224 6.925l-4.687 3.75a.94.94 0 0 1-1.318-.146.94.94 0 0 1 .146-1.318l3.772-3.018-3.772-3.018a.94.94 0 0 1-.146-1.318.94.94 0 0 1 1.318-.146l4.688 3.75a.94.94 0 0 1 0 1.464z" fill="url(#B)"/><defs><linearGradient id="A" x1="16" y1=".063" x2="16" y2="7.563" gradientUnits="userSpaceOnUse"><stop stop-color="#184a85"/><stop offset="1" stop-color="#8dd6e4"/></linearGradient><linearGradient id="B" x1="16" y1="9.438" x2="16" y2="31.938" gradientUnits="userSpaceOnUse"><stop stop-color="#184a85"/><stop offset="1" stop-color="#8dd6e4"/></linearGradient></defs></svg>
